www/assets/icons/nfc.svg

<svg xmlns="http://www.w3.org/2000/svg" width="24" height="24" viewBox="0 0 24 24" fill='currentColor'><path d="M20 2H4c-1.1 0-2 .9-2 2v16c0 1.1.9 2 2 2h16c1.1 0 2-.9 2-2V4c0-1.1-.9-2-2-2m0 18H4V4h16zM18 6h-5c-1.1 0-2 .9-2 2v2.28c-.6.35-1 .98-1 1.72 0 1.1.9 2 2 2s2-.9 2-2c0-.74-.4-1.38-1-1.72V8h3v8H8V8h2V6H6v12h12z"/></svg>

<svg width="24" height="24" viewBox="0 0 24 24" xmlns="http://www.w3.org/2000/svg" fill='currentColor'><path d="M20 2H4C2.9 2 2 2.9 2 4V20C2 21.1 2.9 22 4 22H20C21.1 22 22 21.1 22 20V4C22 2.9 21.1 2 20 2ZM20 20H4V4H20V20ZM18 6H13C11.9 6 11 6.9 11 8V10.28C10.4 10.63 10 11.26 10 12C10 13.1 10.9 14 12 14C13.1 14 14 13.1 14 12C14 11.26 13.6 10.62 13 10.28V8H16V16H8V8H10V6H6V18H18V6Z"/></svg>
